images/spon/afterparty/connext.svg

<svg width="556" height="101" viewBox="0 0 556 101" fill="none" xmlns="http://www.w3.org/2000/svg">
<rect width="555.066" height="100" fill="white"/>
<path d="M179.511 55.4115V51.9883C179.511 42.1158 182.835 36.0136 190.971 36.0136C197.817 36.0136 201.042 40.2802 201.042 46.928H214.189V44.5963C214.189 33.1362 206.698 23.9086 190.624 23.9086C173.161 23.9086 165.57 35.6664 165.57 51.9387V55.3619C165.57 71.535 173.161 83.392 190.624 83.392C206.698 83.392 214.189 74.4125 214.189 63.5973V61.3648H201.042C201.042 66.9212 198.065 71.2374 190.971 71.2374C182.785 71.287 179.511 65.1848 179.511 55.4115ZM247.528 83.4913C265.288 83.4913 273.226 71.5846 273.226 55.4611V52.0379C273.226 35.7656 265.288 24.0078 247.528 24.0078C229.767 24.0078 221.829 35.7656 221.829 52.0379V55.4611C221.829 71.5846 229.767 83.4913 247.528 83.4913ZM247.528 71.287C239.391 71.287 235.77 65.1848 235.77 55.4611V52.0379C235.77 42.1654 239.391 36.0632 247.528 36.0632C255.664 36.0632 259.285 42.1654 259.285 52.0379V55.4611C259.285 65.1848 255.664 71.287 247.528 71.287ZM331.866 82.1022V43.2568C331.866 32.9874 326.855 23.9582 314.403 23.9582C305.423 23.9582 299.52 27.7286 295.997 32.8385L294.708 25.3473H282.404L283.347 41.4212V82.1022H297.287V42.6119C298.875 39.9329 302.546 36.0632 309.045 36.0632C315.346 36.0632 318.025 40.0321 318.025 45.4893V82.1022H331.866ZM392.193 82.1022V43.2568C392.193 32.9874 387.182 23.9582 374.73 23.9582C365.75 23.9582 359.847 27.7286 356.324 32.8385L355.034 25.3473H342.731L343.673 41.4212V82.1022H357.614V42.6119C359.202 39.9329 362.873 36.0632 369.372 36.0632C375.673 36.0632 378.352 40.0321 378.352 45.4893V82.1022H392.193ZM453.066 58.8346V52.286C453.066 36.1129 445.128 23.9086 427.665 23.9086C410.102 23.9086 401.669 36.1129 401.669 52.286V55.0642C401.669 71.2374 409.904 83.4417 428.21 83.4417C444.483 83.4417 453.066 74.4621 453.066 64.2918V63.8453H439.919C439.919 68.1119 435.95 72.6265 428.359 72.6265C420.422 72.6265 416.155 68.1119 415.609 58.8346H453.066ZM427.367 34.7734C434.958 34.7734 438.629 39.5856 439.026 48.5652H415.56C416.155 39.5856 419.876 34.7734 427.367 34.7734ZM459.068 25.3473L474.497 53.0798L459.068 82.1022H474.894L485.61 60.2734L496.425 82.1022H512.251L496.822 53.0798L512.251 25.3473H496.078L485.71 45.787L475.192 25.3473H459.068ZM539.389 25.3473V9.27335H525.448V25.3473H501.883V37.5516H525.448V63.5477C525.448 78.2325 533.584 83.4417 545.243 83.4417C550.253 83.4417 553.18 82.499 554.024 82.0525V70.4932C553.379 70.7909 550.601 71.2374 548.567 71.2374C542.762 71.2374 539.339 69.6498 539.339 62.0097V37.502H555.066V25.2977H539.389V25.3473Z" fill="#0D1216"/>
<path d="M18.92 55.66L41.94 78.48C43.73 80.46 44.4701 85.43 41.25 88.65C35.69 94.36 28.75 87.06 26.96 85.28L6.92005 65.33C-0.0299501 58.39 -3.94995 48.02 6.02005 37.85L30.22 13.85C27.93 10.94 26.6101 6.6 30.5301 2.68C35 -1.79 39.6101 1.66893e-06 42.8301 3.22L42.73 3.32L50.8601 11.41L64.4001 24.95C68.6701 29.27 71.3501 33.53 66.8801 38C62.4201 42.46 57.0601 40.83 52.7901 36.56L40.4901 24.26L20.89 43.91C16.7701 47.83 14.79 51.55 18.91 55.67L18.92 55.66ZM117.25 34.38L97.2601 14.59C95.4701 12.8 88.5301 5.51 82.9701 11.22C79.7501 14.44 80.4901 19.41 82.2801 21.39L105.3 44.21C109.42 48.33 107.43 52.05 103.32 55.97L83.6701 75.62L71.3701 63.32C67.1001 59.05 61.75 57.42 57.28 61.88C52.81 66.34 55.49 70.61 59.76 74.93L73.3001 88.47L81.4601 96.63L81.3901 96.7C84.6101 99.92 89.2301 101.86 93.6901 97.39C97.6601 93.42 96.2601 89.02 93.9101 86.11L118.15 61.87C128.32 51.7 124.4 41.33 117.26 34.39L117.25 34.38Z" fill="url(#paint0_linear_1192_6)"/>
<defs>
<linearGradient id="paint0_linear_1192_6" x1="14.3901" y1="13.8" x2="109.89" y2="86.11" gradientUnits="userSpaceOnUse">
<stop offset="0.03" stop-color="#29C1FC"/>
<stop offset="0.48" stop-color="#AB00FF"/>
<stop offset="0.82" stop-color="#DE7082"/>
<stop offset="1" stop-color="#FBB03B"/>
</linearGradient>
</defs>
</svg>

<svg xmlns="http://www.w3.org/2000/svg" width="556" height="100" fill="none" xmlns:v="https://vecta.io/nano">
<path fill="#fff" d="M0 0h555.066v100H0z"/><path d="M179.511 55.412v-3.423c0-9.873 3.324-15.975 11.46-15.975 6.846 0 10.071 4.267 10.071 10.914h13.147v-2.332c0-11.46-7.491-20.688-23.565-20.688-17.463 0-25.054 11.758-25.054 28.03v3.423c0 16.173 7.591 28.03 25.054 28.03 16.074 0 23.565-8.98 23.565-19.795v-2.232h-13.147c0 5.556-2.977 9.873-10.071 9.873-8.186.05-11.46-6.053-11.46-15.826zm68.017 28.08c17.76 0 25.698-11.907 25.698-28.03v-3.423c0-16.272-7.938-28.03-25.698-28.03s-25.699 11.758-25.699 28.03v3.423c0 16.123 7.938 28.03 25.699 28.03zm0-12.204c-8.137 0-11.758-6.102-11.758-15.826v-3.423c0-9.873 3.621-15.975 11.758-15.975s11.757 6.102 11.757 15.975v3.423c0 9.724-3.621 15.826-11.757 15.826zm84.338 10.815V43.257c0-10.269-5.011-19.299-17.463-19.299-8.98 0-14.883 3.77-18.406 8.88l-1.289-7.491h-12.304l.943 16.074v40.681h13.94v-39.49c1.588-2.679 5.259-6.549 11.758-6.549 6.301 0 8.98 3.969 8.98 9.426v36.613h13.841zm60.327 0V43.257c0-10.269-5.011-19.299-17.463-19.299-8.98 0-14.883 3.77-18.406 8.88l-1.29-7.491h-12.303l.942 16.074v40.681h13.941v-39.49c1.588-2.679 5.259-6.549 11.758-6.549 6.301 0 8.98 3.969 8.98 9.426v36.613h13.841zm60.873-23.268v-6.549c0-16.173-7.938-28.377-25.401-28.377-17.563 0-25.996 12.204-25.996 28.377v2.778c0 16.173 8.235 28.377 26.541 28.377 16.273 0 24.856-8.98 24.856-19.15v-.446h-13.147c0 4.267-3.969 8.781-11.56 8.781-7.937 0-12.204-4.515-12.75-13.792h37.457zm-25.699-24.061c7.591 0 11.262 4.812 11.659 13.792H415.56c.595-8.98 4.316-13.792 11.807-13.792zm31.701-9.426l15.429 27.732-15.429 29.022h15.826l10.716-21.829 10.815 21.829h15.826L496.822 53.08l15.429-27.732h-16.173l-10.368 20.44-10.518-20.44h-16.124zm80.321 0V9.273h-13.941v16.074h-23.565v12.204h23.565v25.996c0 14.685 8.136 19.894 19.795 19.894 5.01 0 7.937-.943 8.781-1.389V70.493c-.645.298-3.423.744-5.457.744-5.805 0-9.228-1.588-9.228-9.228V37.502h15.727V25.298h-15.677v.05z" fill="#0d1216"/><path d="M41.742 2.328L30.48 13.59 6.022 37.849C-3.95 48.02-.03 58.388 6.915 65.334l20.043 19.944c1.786 1.786 8.732 9.079 14.288 3.374 3.225-3.225 2.481-8.186.695-10.17L18.921 55.66c-4.118-4.118-2.133-7.839 1.984-11.758l19.596-19.646 12.304 12.304c4.267 4.267 9.625 5.904 14.09 1.439s1.786-8.732-2.481-13.048L50.87 11.407l-9.128-9.079z" fill="url(#A)"/><path d="M42.834 3.221C39.609-.004 34.995-1.79 30.53 2.675s-2.133 9.476.694 12.304" fill="url(#B)"/><path d="M82.424 97.581l11.262-11.262 24.458-24.458c10.171-10.17 6.251-20.539-.893-27.484L97.257 14.582c-1.786-1.786-8.731-9.079-14.288-3.373-3.225 3.225-2.481 8.186-.695 10.17l23.019 22.821c4.118 4.118 2.134 7.839-1.984 11.758L83.664 75.603 71.36 63.3c-4.267-4.267-9.624-5.904-14.09-1.439s-1.786 8.731 2.48 13.048l13.544 13.544 9.128 9.128z" fill="url(#C)"/><path d="M81.381 96.688c3.225 3.225 7.838 5.159 12.304.695s2.133-9.476-.695-12.303" fill="url(#D)"/><defs><linearGradient id="A" x1="5.695" y1="25.764" x2="116.342" y2="97.149" gradientUnits="userSpaceOnUse"><stop stop-color="#29c1fc"/><stop offset=".502" stop-color="#ab00ff"/><stop offset=".508" stop-color="#ac03fc"/><stop offset=".641" stop-color="#c840b8"/><stop offset=".76" stop-color="#de7082"/><stop offset=".863" stop-color="#ee935b"/><stop offset=".945" stop-color="#f7a844"/><stop offset=".996" stop-color="#fbb03b"/></linearGradient><linearGradient id="B" x1="22.584" y1="-.414" x2="133.232" y2="70.971" gradientUnits="userSpaceOnUse"><stop stop-color="#29c1fc"/><stop offset=".502" stop-color="#ab00ff"/><stop offset=".508" stop-color="#ac03fc"/><stop offset=".641" stop-color="#c840b8"/><stop offset=".76" stop-color="#de7082"/><stop offset=".863" stop-color="#ee935b"/><stop offset=".945" stop-color="#f7a844"/><stop offset=".996" stop-color="#fbb03b"/></linearGradient><linearGradient id="C" x1="16.808" y1="8.539" x2="127.456" y2="79.924" gradientUnits="userSpaceOnUse"><stop stop-color="#29c1fc"/><stop offset=".502" stop-color="#ab00ff"/><stop offset=".508" stop-color="#ac03fc"/><stop offset=".641" stop-color="#c840b8"/><stop offset=".76" stop-color="#de7082"/><stop offset=".863" stop-color="#ee935b"/><stop offset=".945" stop-color="#f7a844"/><stop offset=".996" stop-color="#fbb03b"/></linearGradient><linearGradient id="D" x1="-.128" y1="34.788" x2="110.52" y2="106.174" gradientUnits="userSpaceOnUse"><stop stop-color="#29c1fc"/><stop offset=".502" stop-color="#ab00ff"/><stop offset=".508" stop-color="#ac03fc"/><stop offset=".641" stop-color="#c840b8"/><stop offset=".76" stop-color="#de7082"/><stop offset=".863" stop-color="#ee935b"/><stop offset=".945" stop-color="#f7a844"/><stop offset=".996" stop-color="#fbb03b"/></linearGradient></defs></svg>
